icons/arrow-block-right.svg

<svg width="24" height="24" viewBox="0 0 24 24" fill="none" xmlns="http://www.w3.org/2000/svg">
<path fill-rule="evenodd" clip-rule="evenodd" d="M10.9 6.86699V10.15H4V13.75H10.8V17.1373L19.814 11.9993L10.9 6.86699ZM9.93959 5.11672C10.2579 4.95755 10.6087 4.99086 10.8854 5.12922L10.9051 5.13908L20.8089 10.8412C21.7309 11.3248 21.7304 12.6773 20.8072 13.1597L10.8037 18.8617L10.7854 18.8709C10.5087 19.0092 10.1579 19.0425 9.83959 18.8834C9.50341 18.7153 9.3 18.3761 9.3 18V15.25H3.75C3.42956 15.25 3.10425 15.14 2.85717 14.8929C2.61009 14.6458 2.5 14.3205 2.5 14V10C2.5 9.60612 2.68941 9.27497 2.90717 9.05721C3.12493 8.83946 3.45608 8.65004 3.85 8.65004H9.4V6.00004C9.4 5.62399 9.60341 5.28482 9.93959 5.11672Z" fill="black"/>
</svg>

<svg xmlns="http://www.w3.org/2000/svg" fill="none" viewBox="0 0 24 24">
  <path fill="#000" fill-rule="evenodd" d="M10.9 6.867v3.283H4v3.6h6.8v3.387L19.814 12 10.9 6.867Zm-.96-1.75c.318-.16.669-.126.945.012l.02.01 9.904 5.702c.922.484.921 1.836-.002 2.319l-10.003 5.702-.019.009a1.056 1.056 0 0 1-.945.012A.978.978 0 0 1 9.3 18v-2.75H3.75c-.32 0-.646-.11-.893-.357A1.249 1.249 0 0 1 2.5 14v-4c0-.394.19-.725.407-.943a1.35 1.35 0 0 1 .943-.407H9.4V6c0-.376.203-.715.54-.883Z" clip-rule="evenodd"/>
</svg>
